svgs/samsung_pay.svg

<svg width="24" height="24" viewBox="0 0 24 24" fill="none" xmlns="http://www.w3.org/2000/svg">
<path d="M8.02725 16.0399L8.49 14.9149L7.58625 12.8186H8.12925L8.742 14.3036L9.324 12.8186H9.85725L8.54325 16.0399H8.02725ZM6.15825 15.0686C5.62725 15.0686 5.0745 14.6419 5.0745 13.9226C5.0745 13.1914 5.6085 12.7744 6.16575 12.7744C6.456 12.7744 6.717 12.8944 6.87525 13.0826V12.8186H7.383V15.0236H6.87525V14.7371C6.78802 14.8423 6.67836 14.9267 6.5543 14.9841C6.43024 15.0414 6.29492 15.0703 6.15825 15.0686V15.0686ZM3.00375 15.0236V12.2741H3.94725C4.5165 12.2741 4.93725 12.7099 4.93725 13.2529C4.93725 13.7989 4.51575 14.2369 3.9435 14.2369H3.5175V15.0244L3.00375 15.0236ZM6.24 14.6021C6.61725 14.6021 6.9 14.2969 6.9 13.9166C6.9 13.5439 6.61725 13.2371 6.24 13.2371C6.15133 13.2369 6.06352 13.2544 5.98173 13.2887C5.89994 13.3229 5.82583 13.3732 5.76377 13.4365C5.7017 13.4998 5.65294 13.5749 5.62035 13.6574C5.58776 13.7398 5.572 13.828 5.574 13.9166C5.574 14.3006 5.8635 14.6021 6.24 14.6021ZM3.5175 13.7606H3.9075C4.2135 13.7606 4.422 13.5356 4.422 13.2529C4.42327 13.1855 4.41078 13.1186 4.38529 13.0562C4.35979 12.9939 4.32184 12.9373 4.27374 12.8902C4.22564 12.843 4.16842 12.8061 4.10557 12.7818C4.04272 12.7575 3.97558 12.7463 3.90825 12.7489H3.5175V13.7606ZM3.93525 10.7134C3.45225 10.7134 3 10.5409 3 9.96713V9.76838H3.69L3.6915 10.0181C3.6915 10.1584 3.789 10.2506 3.9495 10.2506C4.1205 10.2506 4.17825 10.1629 4.19925 10.0766C4.21646 10.0146 4.21515 9.94891 4.1955 9.88763C4.06275 9.55463 3.1485 9.40313 3.03675 8.87738C3.01232 8.76308 3.01053 8.64511 3.0315 8.53013C3.099 8.11013 3.4725 7.96013 3.93 7.96013C4.29375 7.96013 4.797 8.04563 4.797 8.60588V8.78738H4.1565V8.62763C4.1565 8.48738 4.0665 8.39513 3.9165 8.39513C3.75525 8.39513 3.69975 8.48663 3.68175 8.56913C3.67283 8.61374 3.67334 8.65972 3.68325 8.70413C3.75675 9.00488 4.73325 9.16538 4.842 9.70388C4.8525 9.75788 4.875 9.90338 4.8435 10.1254C4.78275 10.5551 4.401 10.7134 3.936 10.7134H3.93525ZM12.3008 10.6999C11.8223 10.6999 11.3752 10.5296 11.3752 9.96188V9.76463H12.0585V10.0106C12.0585 10.1494 12.1552 10.2431 12.3142 10.2431C12.4845 10.2431 12.5415 10.1554 12.5625 10.0706C12.5795 10.0091 12.5782 9.94393 12.5587 9.88313C12.4275 9.55313 11.5222 9.40238 11.412 8.88113C11.3873 8.76815 11.3853 8.6514 11.406 8.53763C11.4735 8.12213 11.8447 7.97288 12.297 7.97288C12.657 7.97288 13.1542 8.05913 13.1542 8.61413V8.79413H12.5197V8.63513C12.5197 8.49638 12.4328 8.40488 12.2835 8.40488C12.1245 8.40488 12.0667 8.49488 12.0487 8.57738C12.041 8.62117 12.0423 8.66609 12.0525 8.70938C12.1245 9.00788 13.0912 9.16688 13.1992 9.69938C13.2105 9.75413 13.2323 9.89813 13.2015 10.1179C13.1408 10.5431 12.762 10.6999 12.3015 10.6999H12.3008ZM14.7188 10.6901C14.2463 10.6901 13.8653 10.5326 13.8203 10.0526C13.816 9.99698 13.814 9.94118 13.8142 9.88538V8.03963H14.4645V9.94313C14.4645 9.97613 14.4645 10.0129 14.4705 10.0406C14.4832 10.1044 14.5395 10.2266 14.7188 10.2266C14.8973 10.2266 14.952 10.1044 14.9648 10.0406C14.9697 10.0084 14.9717 9.97574 14.9708 9.94313V8.03963H15.621V9.88538C15.6211 9.94143 15.6191 9.99747 15.615 10.0534C15.57 10.5334 15.192 10.6901 14.7188 10.6901ZM20.0858 10.6624C19.6298 10.6624 19.2248 10.4966 19.182 10.0279C19.1759 9.97131 19.1724 9.9145 19.1715 9.85763V8.77613C19.1715 8.73038 19.1782 8.64863 19.1835 8.60588C19.2412 8.12513 19.6298 7.97138 20.0858 7.97138C20.5418 7.97138 20.9407 8.12363 20.988 8.60588C20.9962 8.68838 20.994 8.77613 20.994 8.77613V8.86163H20.346V8.71688C20.346 8.71688 20.346 8.65688 20.3385 8.61938C20.3265 8.56313 20.277 8.43188 20.0798 8.43188C19.893 8.43188 19.8383 8.55638 19.8248 8.61938C19.8172 8.65942 19.8137 8.70013 19.8143 8.74088V9.91613C19.8139 9.94873 19.8159 9.98132 19.8203 10.0136C19.8323 10.0826 19.8982 10.2011 20.0842 10.2011C20.2702 10.2011 20.334 10.0826 20.346 10.0136C20.3509 9.98137 20.3529 9.94874 20.352 9.91613V9.54338H20.088V9.16838H21V9.85838C21 9.90638 20.9977 9.94238 20.9902 10.0279C20.9475 10.4966 20.5418 10.6624 20.0858 10.6624V10.6624ZM5.277 10.6136L5.754 8.03963H6.8985L7.37325 10.6136H6.68175L6.33975 8.27813L6.32475 8.27963L5.97225 10.6136H5.277ZM7.887 10.6136L7.9425 8.03963H8.9925L9.30825 10.0084H9.324L9.6405 8.03963H10.6898L10.746 10.6136H10.1032L10.0883 8.30138H10.0725L9.64275 10.6136H8.99025L8.5605 8.30213H8.547L8.53125 10.6144L7.887 10.6136ZM16.338 10.5866V8.03963H17.2927L17.8853 10.0594H17.8987L17.8635 8.03963H18.5018V10.5866H17.586L16.9493 8.49638H16.9357L16.971 10.5866H16.338Z" fill="black"/>
</svg>

<svg xmlns="http://www.w3.org/2000/svg" width="24" height="24" fill="none" viewBox="0 0 24 24"><path fill="#000" d="m8.027 16.04.463-1.125-.904-2.096h.543l.613 1.485.582-1.485h.533l-1.314 3.22h-.516m-1.869-.971c-.53 0-1.084-.427-1.084-1.146 0-.732.535-1.149 1.092-1.149.29 0 .551.12.71.309v-.264h.507v2.205h-.508v-.287a.917.917 0 0 1-.717.332m-3.154-.045v-2.75h.943c.57 0 .99.436.99.979a.973.973 0 0 1-.994.984h-.425v.787h-.514m3.236-.422c.377 0 .66-.305.66-.685a.663.663 0 1 0-1.326 0c0 .384.29.685.666.685m-2.722-.841h.39a.496.496 0 0 0 .514-.508.495.495 0 0 0-.514-.504h-.39v1.012m.417-3.048c-.483 0-.935-.172-.935-.746v-.199h.69l.002.25c0 .14.097.233.257.233.172 0 .23-.088.25-.174a.33.33 0 0 0-.003-.19c-.133-.332-1.047-.484-1.16-1.01a.894.894 0 0 1-.005-.347c.068-.42.442-.57.899-.57.364 0 .867.086.867.646v.181h-.64v-.16c0-.14-.09-.232-.24-.232-.162 0-.217.092-.235.174a.326.326 0 0 0 .001.135c.074.3 1.05.461 1.159 1 .01.054.033.2.002.421-.061.43-.443.588-.908.588m8.366-.013c-.479 0-.926-.17-.926-.738v-.197h.684v.246c0 .138.096.232.255.232.17 0 .227-.088.248-.172a.328.328 0 0 0-.003-.188c-.131-.33-1.037-.48-1.147-1.002a.875.875 0 0 1-.006-.343c.067-.416.439-.565.891-.565.36 0 .857.086.857.641v.18h-.634v-.159c0-.139-.087-.23-.236-.23-.16 0-.217.09-.235.172a.328.328 0 0 0 .004.132c.071.299 1.038.458 1.146.99.011.055.033.2.002.419-.06.425-.439.582-.9.582m2.418-.01c-.473 0-.854-.157-.899-.637a2.073 2.073 0 0 1-.006-.168V8.04h.65v1.903c0 .033 0 .07.006.098.013.063.07.186.249.186.178 0 .233-.123.246-.186a.548.548 0 0 0 .006-.098V8.04h.65v1.845c0 .056-.002.112-.006.168-.045.48-.423.637-.896.637m5.367-.028c-.456 0-.861-.165-.904-.634a1.864 1.864 0 0 1-.01-.17V8.776c0-.046.006-.127.011-.17.058-.48.447-.635.903-.635s.855.153.902.635c.008.082.006.17.006.17v.086h-.648v-.145s0-.06-.008-.098c-.012-.056-.061-.187-.258-.187-.187 0-.242.124-.255.187a.604.604 0 0 0-.01.122v1.175a.537.537 0 0 0 .005.098c.012.069.078.187.264.187s.25-.118.262-.187a.548.548 0 0 0 .006-.098v-.373h-.264v-.375H21v.69c0 .048-.002.084-.01.17-.042.469-.448.634-.904.634m-14.809-.048.477-2.574h1.145l.474 2.574h-.691L6.34 8.278l-.015.002-.353 2.334zm2.61 0 .056-2.574h1.05l.315 1.968h.016L9.64 8.04h1.05l.056 2.574h-.643L10.088 8.3h-.015l-.43 2.313H8.99l-.43-2.312h-.013l-.016 2.312h-.644m8.451-.027V8.04h.955l.592 2.02h.014l-.036-2.02h.639v2.547h-.916l-.637-2.09h-.013l.035 2.09h-.633"/></svg>
